X:1
T:the Lady Agnes Duff
T:the Lady Agnes Duff
T:William Marshall
C:William Marshall
%%score { ( 1 2 ) 3 }
L:1/8
M:4/4
K:F
V:1 treble 
V:2 treble 
V:3 bass 
V:1
 a | f<ff>c AFFa | f<ff>c g2 ga | f<ff>c dfcA | B>dc>e f2 f :| d | c<Fc>A F>cA>c | B>d A<c G>AB>d | %8
 c<Fc>A F>Ac>A | B<cc>e f2 fd | c<Fc>A F>cG>c | B>dA>c GABd | A<FG>A B>cd>B | %13
 [Ac]>f[Be]>g [Af]2 [Af] |] %14
V:2
 x | x8 | x8 | x8 | F2 B2 A2 A :| x | x8 | x8 | x8 | F2 B2 A2 A x | x8 | F2 F2 E4 | x8 | x7 |] %14
V:3
 z | [fac']2 [fac']2 [fac']2 [fac']2 | [fac']2 [fac']2 [cgc']2 [cgc']2 | %3
 [fac']2 [fac']2 [fbd']2 [fac']2 | [Bb]2 [Cc]2 [Ff]2 [Ff] :| z | [Ff]2 [Ff]2 [Ff]2 [Ff]2 | %7
 [Bb]2 [Ff]2 [Cc]2 [Cc]2 | [Ff]2 [Ff]2 [Ff]2 [Ff]2 | [Bb]2 [Cc]2 [Ff]2 [Ff]2 | %10
 [Ff]2 [Ff]2 [Ff]2 [Ff]2 | [Ee]2 [Ff]2 [cc']2 [cc']2 | [Ff]2 [=E=e]2 [Dd]2 [Bb]2 | %13
 [Cc]2 [Cc]2 [Ff]2 [Ff] |] %14

